frontend/public/svg/arrows/arrow-up.svg

<svg width="85" height="150" viewBox="0 0 85 150" fill="none" xmlns="http://www.w3.org/2000/svg">
<path d="M42.6677 81.9603C42.8134 99.9564 42.9302 117.953 43.1271 135.949C43.1678 139.536 43.4487 143.128 43.7999 146.7C43.864 147.291 44.105 147.849 44.4915 148.301C44.8779 148.753 45.3918 149.078 45.9658 149.233C46.8847 149.526 48.1882 148.506 48.3798 147.288C48.5662 146.106 48.8537 144.931 48.9252 143.743C49.3846 136.16 50.0351 128.579 50.1723 120.988C50.4525 105.396 50.5228 89.797 50.5405 74.2011C50.5575 59.4033 50.3731 44.6062 50.3383 29.8084C50.3331 27.4331 50.6317 25.0552 50.8437 22.6832C50.8827 22.5259 50.9604 22.3808 51.0699 22.2613C51.1794 22.1418 51.3172 22.0518 51.4705 21.9993C51.8374 21.9566 52.455 22.0649 52.5863 22.3084C55.0587 26.8562 57.6591 31.3468 59.8651 36.0259C64.9963 46.9034 71.2893 57.1074 77.6033 67.3043C78.641 68.9799 79.695 70.7356 81.754 71.4116C82.1287 71.5344 82.7706 71.7261 82.896 71.5699C83.4176 71.0107 83.7926 70.3311 83.9874 69.5916C84.0804 68.8038 83.9529 68.0057 83.6192 67.286C82.4647 64.7381 81.2604 62.2091 79.9661 59.7295C70.7157 42.0123 61.4101 24.324 52.1846 6.59306C48.706 -0.0950191 45.3324 -3.27238 37.6841 4.75528C35.4801 7.06822 33.2782 9.40808 31.3177 11.9232C22.2165 23.588 13.1708 35.2951 4.1807 47.0444C3.02176 48.6602 1.99041 50.3638 1.09594 52.1396C0.467169 53.2981 0.840567 54.4578 1.59404 55.458C2.42431 56.5594 4.83836 57.2426 5.89966 56.8626C8.25591 56.0192 9.98471 54.3396 11.5501 52.5347C17.5766 45.588 23.5595 38.6037 29.4989 31.5818C33.3805 27.0189 37.205 22.4075 41.0945 17.8518C41.2868 17.6274 41.8821 17.6156 42.2404 17.7075C42.3954 17.7673 42.5335 17.8639 42.643 17.9888C42.7525 18.1138 42.8302 18.2634 42.8692 18.4248C43.0261 20.806 43.2243 23.1919 43.2118 25.575C43.1129 44.3721 42.9891 63.1685 42.8403 81.9642L42.6677 81.9603Z" fill="black"/>
</svg>

<svg xmlns="http://www.w3.org/2000/svg" width="85" height="150" fill="none" viewBox="0 0 85 150"><path fill="#000" d="M42.668 81.96c.145 17.996.262 35.993.46 53.989.04 3.587.32 7.179.672 10.751a2.95 2.95 0 0 0 2.166 2.533c.919.293 2.222-.727 2.414-1.945.186-1.182.474-2.357.545-3.545.46-7.583 1.11-15.164 1.247-22.755.28-15.592.35-31.191.369-46.787.017-14.798-.168-29.595-.203-44.393-.005-2.375.294-4.753.506-7.125A.97.97 0 0 1 51.47 22c.366-.042.984.066 1.115.31 2.473 4.547 5.073 9.038 7.28 13.717 5.13 10.877 11.423 21.081 17.737 31.278 1.038 1.676 2.092 3.432 4.151 4.108.375.122 1.017.314 1.142.158a4.6 4.6 0 0 0 1.091-1.978 4.3 4.3 0 0 0-.368-2.306 151 151 0 0 0-3.653-7.556C70.716 42.012 61.41 24.324 52.185 6.593c-3.479-6.688-6.853-9.865-14.5-1.838-2.205 2.313-4.407 4.653-6.367 7.168A4704 4704 0 0 0 4.18 47.044a38 38 0 0 0-3.085 5.096c-.629 1.158-.255 2.318.498 3.318.83 1.101 3.244 1.785 4.306 1.405 2.356-.844 4.085-2.523 5.65-4.328A2205 2205 0 0 0 29.5 31.582c3.881-4.563 7.706-9.175 11.595-13.73.193-.225.788-.236 1.146-.145a1.03 1.03 0 0 1 .63.718c.156 2.381.354 4.767.342 7.15q-.15 28.196-.372 56.39z"/></svg>
